X:1
T:Title
%%score 1 { 2 | ( 3 4 ) }
L:1/8
M:6/8
K:F
V:1 treble nm="Akkordion"
V:2 treble nm="Grand Piano"
V:3 bass 
V:4 bass 
V:1
 z3 z2[Q:1/4=84] A/B/ | c>cc c=Bd | c2 A F2 A/A/ | BBB AAA | G3- G2 A/B/ | ccc c2 =B/d/ | %6
 c2 A F2 F/G/ | ABd cGA |[M:5/8] F-F- F3 |[M:1/8] F/G/ |[M:3/4] A>_A =A D2 A/A/ | d2 ^c d2 d/d/ | %12
 cc c=B cB | A4- AA/A/ | BB B B2 B/B/ | AA A d2 d/d/ | cG AB AG |[M:5/8] F-F- F3 |[M:1/8] z | %19
[M:3/4] z6 | z6 | z6 | z6 | z6 | z6 | z6 | z6 |] %27
V:2
 z6 | .[CFA]3 .[CFA]3 | .[CFA]3 .[CFA]3 | .[DFB]3 .[DFA]3 | .[EG]3 .[CEG]3 | %5
 [CFc]2 [CEB] [CFA]2 [DF_A] | [CFA]2 [CFA] [DFA]2 [DFB] | .[CFA]3 .[CEB]3 | %8
[M:5/8] [CFA]-[CFA]- [CFA]3 |[M:1/8] z |[M:3/4] [DFA]2 z .[DFA]3 | [FAd]2 [GA^c] .[FAd]3 | %12
 [EAc]2 z .[DE_A]3 | [CEA]6 | [^CEB]2 z .[EB]3 | [A,^CEA]2 z [Ad]2 [F_Ad] | [EGc]2 z .[CEB]3 | %17
[M:5/8] [CFA]-[CFA]- [CFA]3 |[M:1/8] F/F/ |[M:3/4] FA dc AF | [CEG][CDF] [CEG] .[CFA]3 | %21
 cc cc z [CEG]/[CEG]/ | [CFA][CFA] [CFA] .[CEG]3 | Ac c .c3 | [DFB][Fd] [Fd] .[Fd]3 | %25
 [EG][FA] [GB]A GF | [DG]F E .F3 |] %27
V:3
 z6 | .[F,,F,]3 .[F,,F,]3 | .[F,,F,]3 .[F,,F,]3 | .[B,,,B,,]3 .[=B,,,=B,,]3 | .[C,,C,]3 .[B,,B,]3 | %5
 [A,,A,]2 [G,,G,] [F,,F,]2 [F,,F,] | [F,,F,]2 [F,,F,] [D,,D,]2 [B,,,B,,] | .[C,,C,]3 .[C,,C,]3 | %8
[M:5/8] [F,,F,]-[F,,F,]- [F,,F,]3 |[M:1/8] z |[M:3/4] [D,,D,]2 z .[D,,D,]3 | %11
 [A,,A,]2 [A,,A,] .[D,,D,]3 | [E,,E,]2 z .[E,,E,]3 | [A,,A,]6 | z2 z .D3 | %15
 G,,2 z [D,F,D]2 [=B,,,=B,,] | [C,,C,]2 z .[C,,C,]3 |[M:5/8] F,C,A,, F,,2 |[M:1/8] F,/F,/ | %19
[M:3/4] F,A, DC A,F, | C,C, C, .F,3 | CC CC z C,/C,/ | F,F, F, .C,3 | %23
 [F,CF][F,A,F] [F,A,F] .[F,A,F]3 | B,,B,, B,, .B,,3 | [C,C][C,C] [C,C][F,CF] [F,B,E][F,A,] | %26
 [B,,B,][C,A,C] [C,G,C] .[F,A,C]3 |] %27
V:4
 x6 | x6 | x6 | x6 | x6 | x6 | x6 | x6 |[M:5/8] x5 |[M:1/8] x |[M:3/4] x6 | x6 | x6 | x6 | %14
 [G,,G,]6 | x6 | x6 |[M:5/8] x5 |[M:1/8] x |[M:3/4] x6 | x6 | x6 | x6 | x6 | x6 | x6 | x6 |] %27

